X:1
T:Title
%%score { ( 1 3 ) | 2 }
L:1/8
M:9/8
K:D
V:1 treble nm="Grand Piano"
V:3 treble 
V:2 bass 
V:1
 z3 z3[Q:1/4=90] [FA][FA][FA] | [FA]3 [A,DF]2 [A,DF][K:bass] [G,CE][F,D][K:treble][A,CE] | %2
 [A,DF]3 [DFA]3 [CGA][B,GB][Gc] | [Fd]3- [Fd][DFA][A,DF] [DGB][DFA][A,DF] | %4
 [A,CE]3- [A,CE]2 [CGA] [CGA][CGA][CGA] | %5
 [DFA]3 [A,DF]2 [A,DF][K:bass] [G,CE][F,D][K:treble][A,CE] | [A,DF]3 [DFA]3 Bed | %7
 d3- dFA [EG][DF][CE] |[M:3/4] D6 |[M:3/8] ABc |[M:9/8] .d6 z3 | [DFA]3 [A,FA]3 z3 | .d6 z3 | %13
 [A,CA]3- [A,CA]2 [CEA] [CGA][DGA][EGA] |[M:3/4] [DFA]3 [A,DF]2 [A,DF] | %15
[M:9/8] [DFA]3 [A,DF]2 [A,DF][K:bass] [G,CE][F,D][K:treble][A,CE] | [A,DF]3 [DFA]3 Bed | %17
 d3- dFA [EG][DF][CE] |[M:7/4] D6 z2 z2 z4 |] %19
V:2
 z3 z3 [D,D][D,D][D,D] | [D,D]3 D,2 D, A,,A,,A,, | D,3 D,3 A,A,A, | [D,A,]3- [D,A,]D,D, D,D,D, | %4
 A,,3- A,,2 A,, A,,A,,A,, | D,3 D,2 D, A,,A,,A,, | D,3 D,3[K:treble] [G,DG][G,B,G][G,B,G] | %7
 [A,F]3- [A,F][A,D][A,F][K:bass] [A,,A,][A,,A,][A,,G,] |[M:3/4] [D,F,]6 |[M:3/8] z3 | %10
[M:9/8] [D,A,][D,A,][D,A,] [D,A,][E,A,][F,A,] G,G,G, | D,3 D,3[K:treble] ABc | %12
 [B,,B,][B,,B,][B,,B,] [B,,B,][C,^A,][D,B,] [E,CE][E,=A,E][E,^G,D] | A,,3- A,,2 A,, A,,B,,C, | %14
[M:3/4] D,3 D,2 D, |[M:9/8] D,3 D,2 D, A,,A,,A,, | D,3 D,3[K:treble] [G,DG][G,B,G][G,B,G] | %17
 [A,F]3- [A,F][A,D][A,F][K:bass] [A,,A,][A,,A,][A,,G,] |[M:7/4] [D,F,]6 z2 z2 z4 |] %19
V:3
 x9 | x6[K:bass] x2[K:treble] x | x9 | x9 | x9 | x6[K:bass] x2[K:treble] x | x9 | x9 |[M:3/4] x6 | %9
[M:3/8] x3 |[M:9/8] FFF F[Fc][Ae] [DBd][DAc][DGB] | x9 | FFF F[Fc][FB] AcB | x9 |[M:3/4] x6 | %15
[M:9/8] x6[K:bass] x2[K:treble] x | x9 | x9 |[M:7/4] x14 |] %19

